X: 2
T:Gander In the Pratie Hole
Z:Peter Crummy
S:Nigel Gatherer <gatherer:ARGONET.CO.UK> irtrad-l 2000-5-04
R:Jig
M:6/8
K:D
G|FAD FAD|GFG EFG|FAD FAD|GED D2 D|
FAD FAD|GFG EFG|fed ecA|GED D2:|]
z|Add ded|=cAB cAG|Add ded|=cAB c2 G|
Add ded|=cAB cde|fed ecA|GED D2:|]
